X:152
T: Ha tudtad, hogy nem szerettél...
M: 4/4
L: 1/4
K: F 
fefe | fedc | 
AAcc | dcBB | AAA2 | 
AAcc | dc=Bc |
FF_AA | cdc=B | GGG2 | 

